X: 965
T: Hançer-i Aşkınla Ey Yâr
C: Ekrem Güyer
O: Turkey
F: http://compmusic.upf.edu/node/140
N: hicaz--sarki--kapali_curcuna--hancer-i_askinla--ekrem_guyer
N: makam= hicaz
N: form= sarki
N: usul= kapali_curcuna = 10/8
M: 10/8
L: 1/16
K: C _7/8B ^f ^c 
Q: 1/4=168
%%MIDI tuningsystem comma53
G4 A2A4A4A2 {B}A2G2  | e4 d2d2 c2c2 B2B2 B2A2  | \
w:  Han *  çer_ i  aş  |  kın *  la  *  ey   | 
A8-A2A2 B2c2 d2e2  | 
w:  yâr  SAZ  | 
e2{=f}e2 d2d4d2 c2B3AG2  | =f3e d2d2 c2d2 c2d4z2  | \
w:  gön *  *  *  lüm  üz *  re   |  vur *  *  ma  *  hiç    | 
e2g2 =f2e2 d2c2 B2A4z2  | 
w:  SAZ  | 
G4 A2A4A4A2 {B}A2G2  | e4 d2d2 c2c2 B2B2 B2A2  | \
w:  Han *  çer_ i  aş  |  kın *  la  *  ey   | 
A8-A2A2 B2c2 d2e2  | 
w:  yâr  SAZ  | 
e2{=f}e2 d2d4d2 c2B3AG2  | =f3e d2d2 c2d2 c2d4z2  | \
w:  gön *  *  *  lüm  üz *  re   |  vur *  *  ma  *  hiç    | 
e2g2 =f2e2 d2e2 c2d4z2  | 
w:  SAZ  | 
e4 d2d4d2 c2B2 A2B2  | c6d2 c2B2 BAA4G2  | \
w:  Öy *  le  bir  *  der  |  de  gi *  rif *  *  tâ  | 
G4 A2A4A3GA2 B2c2  | 
w:  rım  *  ki  ha *  lim   | 
d4 c2cB A2B8-B2  | A2B2 c2B2 c2B2 A2A4z2  | \
w:  sor *  ma  *  *  hiç    |  sor *  *  *  *  ma  *  hiç    | 
e2g2 =f2e2 d2e2 c2d4z2  | 
w:  SAZ  | 
e4 d2d4d2 c2B2 A2B2  | c6d2 c2B2 BAA4G2  | \
w:  Öy *  le  bir  *  der  |  de  gi *  rif *  *  tâ  | 
G4 A2A4A3GA2 B2c2  | 
w:  rım  *  ki  ha *  lim   | 
d4 c2cB A2B8-B2  | A2B2 c2B2 c2B2 A2A4z2  | \
w:  sor *  ma  *  *  hiç    |  sor *  *  *  *  ma  *  hiç    | 
{e}d4 g2f2 e2f2 g2a6  | 
w:  *  SAZ  | 
g4 a2a4a2 =ba{b}a6  | f2e2 f2g4^1/4f3ed6  | \
w:  Ağ *  la dık *  *  *  ça   |  göz *  *  le rim *  den   | 
c4 B2B2 A2A2 a2ag =fed2  | 
w:  kan  *  ge *  lir  *  yaş   | 
{e}=f4 e2d2 c2d8-d2  | {e}d4 g2f2 e2f2 g2a6  | \
w:  *  ye *  ri *  ne    |  *  SAZ  | 
g4 a2a4a2 =ba{b}a6  | f2e2 f2g4^1/4f3ed6  | 
w:  Ağ *  la dık *  *  *  ça   |  göz *  *  le rim *  den   | 
c4 B2B2 A2A2 a2ag =fed2  | {e}=f4 e2d2 c2d8-d2  | \
w:  kan  *  ge *  lir  *  yaş   |  *  ye *  ri *  ne    | 
e2g2 =f2e2 d2e2 c2d4z2  | 
w:  SAZ  | 
e4 d2d4d2 c2B2 A2B2  | c6d2 c2B2 BAA4G2  | \
w:  Öy *  le  bir  *  der  |  de  gi *  rif *  *  tâ  | 
G4 A2A4A3GA2 B2c2  | 
w:  rım  *  ki  ha *  lim   | 
d4 c2cB A2B8-B2  | A2B2 c2B2 c2B2 A2A4z2  | |


